X:13243
T:PLINN 3 (Tamm Kreiz)
Z: Yves BELOTTEAU
M:4/4
L:1/8
Q:1/4=120
K:C
|cAcB3/2 z/2 BcA|cB5/2 z/2 Aceg3/2 z/2 |ag3/2 z/2 d e5/2 z/2 d|cAB5/2 z/
2 cAc|
B5/2 z/2 A ceg3/2 z/2 |ag3/2 z/2 d e5/2 z/2 |G3/2 z/2 B/2c/2d cBA3/2 z/2
 |AcBc dABg/2g/2|
gBgB dAdB|B/2c/2dcB A3/2 z/2 A3/2 z/2 |G3/2 z/2 B/2c/2d cBA3/2 z/2 |AcBc
 dABg/2g/2|
gBgB dAdB|B/2c/2dcB A3/2 z/2 A3/2|
